X: 35
T: Żywot niepobożnego za świadka mi stoi,
C: Mikołaj Gomółka
%%abc-version 2.0
%%abcx-abcm2ps-target-version 5.9.1 (29 Sep 2008)
%%abc-creator hum2abc beta
%%abcx-conversion-date 2021/10/04 07:59:09
%%abc-edited-by Anna Matuszewska
%%abcx-initial-encoding-date 2020-02-07
%%humdrum-veritas 1809102571
%%humdrum-veritas-data 3347463312
%%linebreak <none>
%%barnumbers 0
L: 1/4
M: C|
N: Derived from pl-wn--sd-xvi-qu-273--036_gomolka-mikolaj--zywot-niepoboznego-za-swiadka-mi-stoi.krn
%%staves [1 2 3 4]
V: 1
V: 2 clef=alto
V: 3 clef=alto
V: 4
K: F
[V:1] c4c2c4 [I:setbarnb 1][|] 
[V:2] A4G2G4 [|] 
[V:3] F4E2E4 [|] 
[V:4] F,4C2C4 [|] 
[V:1] c2B2AG [|] 
[V:2] A2D2C2 [|] 
[V:3] F2F2E2 [|] 
[V:4] A,2B,2C2 [|] 
[V:1] A2c2d4 [|] 
[V:2] C2A2F3G [|] 
[V:3] F2>E2D2D2 [|] 
[V:4] F,2F,2B,4 [|] 
[V:1] c2c4B2 [|] 
[V:2] A2A2G3F [|] 
[V:3] E2F2D4 [|] 
[V:4] A,2F,2G,4 [|] 
[V:1] c4 [|] 
[V:2] E4 [|] 
[V:3] C4 [|] 
[V:4] C,4 [|] 
[V:1] A4 [I:setbarnb 5][|] 
[V:2] F4 [|] 
[V:3] C4 [|] 
[V:4] F,4 [|] 
[V:1] B2B2A3G [|] 
[V:2] F2F2F2C2 [|] 
[V:3] D2D2C2A,2 [|] 
[V:4] B,,2B,,2F,3E, [|] 
[V:1] FEF2E2A2 [|] 
[V:2] F,2F,2G,2F,G, [|] 
[V:3] B,C2B,C2C2 [|] 
[V:4] D,C,D,2C,2F,2 [|] 
[V:1] A2G2F2F2 [|] 
[V:2] A,B,CA,B,C2B, [|] 
[V:3] F,2G,2A,2F,2 [|] 
[V:4] F,2E,2D,2D,2 [|] 
[V:1] E4G4 [|] 
[V:2] C4E4 [|] 
[V:3] G,4C4 [|] 
[V:4] C,4C,4 [|] 
[V:1] G2G2B2B2 [|] 
[V:2] E2E2F2F2 [|] 
[V:3] C2C2D2D2 [|] 
[V:4] C,2C,2B,,C,D,E, [|] 
[V:1] A4G4 [|] 
[V:2] F4E4 [|] 
[V:3] C4C4 [|] 
[V:4] F,4C,4 [|] 
[V:1] F2>D2E2F4 [|] 
[V:2] D2>D2C2B,2x2 [|] 
[V:3] A,2>B,2G,2F,2x2 [|] 
[V:4] D,2>B,,2C,2D,2x2 [|] 
[V:1] x2E2F4 [|] 
[V:2] C2>B,2A,4 [|] 
[V:3] G,4F,4 [|] 
[V:4] C,4F,4 [|] 


